!!!OTL: SELIG DIE TODTEN
!!!ARE: Europa, Mitteleuropa, Deutschland
!!!SCT: F1060
!!!YEM: Copyright 1995, estate of Helmut Schaffrath.
**kern
*ICvox
*Ivox
*M4/4
*k[]
*C:
=1
{2G
4E
4E
=2
4G
4F
4E}
{4G
=3
4G
4c
4e
4c
=4
4c
4B
4B}
{4B
=5
2d
4F
4F
=6
2A-
4G}
{4G
=7
2c
4F#
4F#
=8
2G
4G}
{4G
=9
2d
4B
4B
=10
2e
4d}
{4d
=11
2c
2B-
=12
2A
4r}
{4d
=13
2.d
4d
=14
2c
4A}
{4A
=15
2G
4A
4B
=16
2.c}
{4c
=17
2c
4c
4c
=18
4e
4c
4B
4d
=19
2.c
4r}
==
!!!AGN: Trauer -, Bregraebnis -, Trost - Lied
!!!ONB: ESAC (Essen Associative Code) Database: FINK
!!!AMT: simple quadruple
!!!AIN: vox
!!!EED: Helmut Schaffrath
!!!EEV: 1.0
*-
